packages/katcn/src/icons/svg/ruler.svg

<svg width="24" height="25" viewBox="0 0 24 25" fill="none" xmlns="http://www.w3.org/2000/svg">
<path d="M22.3016 5.14905L19.1088 1.95631C18.1111 0.958575 16.5147 0.958575 15.6168 1.95631L1.7483 15.725C0.750567 16.7227 0.750567 18.3191 1.7483 19.2171L4.94104 22.4098C5.43991 22.9087 6.03855 23.208 6.73696 23.208C7.43537 23.208 8.03401 22.9087 8.53288 22.5096L22.3016 8.74089C22.7007 8.24202 23 7.64338 23 6.94497C23 6.24656 22.7007 5.64792 22.3016 5.14905ZM20.9048 7.24429L7.03628 21.1128C6.93651 21.2125 6.83673 21.2125 6.73696 21.2125C6.63719 21.2125 6.43764 21.1128 6.33787 21.1128L3.14512 17.92C2.94558 17.7205 2.94558 17.4212 3.14512 17.2216L4.84127 15.5255L6.83674 17.5209C7.03628 17.7205 7.23583 17.8203 7.53515 17.8203C7.83447 17.8203 8.03401 17.7205 8.23356 17.5209C8.63265 17.1218 8.63265 16.5232 8.23356 16.1241L6.2381 14.1286L9.33107 11.0357L11.3265 13.0311C11.5261 13.2307 11.7256 13.3305 12.0249 13.3305C12.3243 13.3305 12.5238 13.2307 12.7234 13.0311C13.1224 12.632 13.1224 12.0334 12.7234 11.6343L10.7279 9.63885L13.8209 6.54588L15.8163 8.54134C16.0159 8.74089 16.2154 8.84066 16.5147 8.84066C16.8141 8.84066 17.0136 8.74089 17.2132 8.54134C17.6122 8.14225 17.6122 7.54361 17.2132 7.14452L15.2177 5.14905L17.0136 3.35313C17.1134 3.25336 17.2132 3.25336 17.3129 3.25336C17.4127 3.25336 17.6122 3.25336 17.712 3.35313L20.9048 6.54588C21.0045 6.64565 21.0045 6.8452 21.0045 6.94497C21.0045 7.04474 21.0045 7.14452 20.9048 7.24429Z" fill="black"/>
</svg>

<svg xmlns="http://www.w3.org/2000/svg" fill="none" viewBox="0 0 24 25"><path fill="#000" d="m22.302 5.149-3.193-3.193c-.998-.997-2.594-.997-3.492 0L1.748 15.725c-.997.998-.997 2.594 0 3.492l3.193 3.193c.499.499 1.098.798 1.796.798s1.297-.3 1.796-.698L22.302 8.74C22.7 8.243 23 7.644 23 6.946s-.3-1.297-.698-1.796m-1.397 2.095L7.036 21.113c-.1.1-.2.1-.299.1-.1 0-.3-.1-.4-.1L3.146 17.92c-.2-.2-.2-.499 0-.698l1.696-1.697 1.996 1.996c.2.2.399.3.698.3.3 0 .499-.1.699-.3a.965.965 0 0 0 0-1.397L6.238 14.13l3.093-3.093 1.995 1.995c.2.2.4.3.699.3.3 0 .499-.1.698-.3a.965.965 0 0 0 0-1.397L10.728 9.64l3.093-3.093 1.995 1.995c.2.2.4.3.699.3.3 0 .499-.1.698-.3a.965.965 0 0 0 0-1.396L15.218 5.15l1.796-1.796c.1-.1.2-.1.299-.1.1 0 .3 0 .399.1l3.193 3.193c.1.1.1.3.1.399s0 .2-.1.3"/></svg>
